public_html/images/social.svg

<?xml version="1.0" encoding="UTF-8"?>
<svg width="164px" height="28px" viewBox="0 0 164 28" version="1.1" xmlns="http://www.w3.org/2000/svg" xmlns:xlink="http://www.w3.org/1999/xlink" xmlns:sketch="http://www.bohemiancoding.com/sketch/ns">
    <!-- Generator: Sketch 3.3.3 (12081) - http://www.bohemiancoding.com/sketch -->
    <title>Untitled 4</title>
    <desc>Created with Sketch.</desc>
    <defs></defs>
    <g id="Page-1" stroke="none" stroke-width="1" fill="none" fill-rule="evenodd" sketch:type="MSPage">
        <path d="M34.3716886,14.0085847 C34.3716886,6.55832122 40.4128405,0.518395712 47.8631039,0.518395712 C55.3145938,0.518395712 61.3545193,6.55832122 61.3545193,14.0085847 C61.3545193,21.4588481 55.3145938,27.4987736 47.8631039,27.4987736 C40.4128405,27.4987736 34.3716886,21.4588481 34.3716886,14.0085847 L34.3716886,14.0085847 Z M53.331536,6.65029978 L42.3934455,6.65029978 C41.3547009,6.65029978 40.5035927,7.50018169 40.5035927,8.53892624 L40.5035927,19.4770167 C40.5035927,20.5157613 41.3547009,21.3656432 42.3934455,21.3656432 L53.331536,21.3656432 C54.3702805,21.3656432 55.2201624,20.5157613 55.2201624,19.4770167 L55.2201624,12.5762102 L55.2201624,8.53892624 C55.2201624,7.50018169 54.3702805,6.65029978 53.331536,6.65029978 L53.331536,6.65029978 L53.331536,6.65029978 Z M52.9722064,19.674464 L42.7245683,19.674464 C42.4020302,19.674464 42.1395847,19.4107922 42.1395847,19.0894804 L42.1395847,12.872956 L43.4910563,12.872956 C43.3684182,13.2739826 43.3021937,13.6970839 43.3021937,14.1361283 C43.3021937,16.5839844 45.3502496,18.5682685 47.8765941,18.5682685 C50.4017122,18.5682685 52.4497682,16.5839844 52.4497682,14.1361283 C52.4497682,13.6970839 52.3835436,13.2739826 52.2621319,12.872956 L53.55719,12.872956 L53.55719,19.0894804 C53.55719,19.4107922 53.2935182,19.674464 52.9722064,19.674464 L52.9722064,19.674464 L52.9722064,19.674464 Z M52.8875861,11.1952671 L51.2246137,11.1952671 C50.8591523,11.1952671 50.5611417,10.8972565 50.5611417,10.5330214 L50.5611417,8.94731105 C50.5611417,8.58307594 50.8591523,8.28506541 51.2246137,8.28506541 L52.8875861,8.28506541 C53.2518212,8.28506541 53.5498318,8.58307594 53.5498318,8.94731105 L53.5498318,10.5330214 C53.5498318,10.8972565 53.2518212,11.1952671 52.8875861,11.1952671 L52.8875861,11.1952671 L52.8875861,11.1952671 Z M47.8765941,16.840298 C46.2442813,16.840298 44.9210164,15.5575036 44.9210164,13.9754724 C44.9210164,12.3946675 46.2442813,11.1118732 47.8765941,11.1118732 C49.508907,11.1118732 50.8321719,12.3946675 50.8321719,13.9754724 C50.8321719,15.5575036 49.508907,16.840298 47.8765941,16.840298 L47.8765941,16.840298 L47.8765941,16.840298 Z" id="instagramm" fill="#6A7582" sketch:type="MSShapeGroup"></path>
        <path d="M82.0716795,27.5 C74.6214161,27.5 68.5802642,21.4600745 68.5802642,14.009811 C68.5802642,6.5595476 74.6214161,0.519622093 82.0716795,0.519622093 C89.5231693,0.519622093 95.5630948,6.5595476 95.5630948,14.009811 C95.5630948,21.4600745 89.5231693,27.5 82.0716795,27.5 Z M90.0063634,9.65493278 C89.4643031,9.89898256 88.8817722,10.0633176 88.2710345,10.1369004 C88.894036,9.75794876 89.3735509,9.15824855 89.5992049,8.44326853 C89.0154477,8.79401344 88.369145,9.04910065 87.679919,9.18645531 C87.129274,8.59166061 86.3443903,8.22006722 85.4748863,8.22006722 C83.8070084,8.22006722 82.4543103,9.58993459 82.4543103,11.2811137 C82.4543103,11.5214844 82.4812907,11.7544967 82.5327987,11.9789244 C80.0211708,11.8513808 77.7952896,10.6323583 76.3052369,8.78052326 C76.0452442,9.23305778 75.8968521,9.75794876 75.8968521,10.3196312 C75.8968521,11.381677 76.4303278,12.3186319 77.2409655,12.8668241 C76.7455076,12.8508812 76.2794829,12.7135265 75.8723245,12.4841933 L75.8723245,12.5234375 C75.8723245,14.0061319 76.9135218,15.2435501 78.295653,15.5243914 C78.0417922,15.5942951 77.7744411,15.6323129 77.4997318,15.6323129 C77.3047373,15.6323129 77.1158746,15.6126908 76.9306911,15.5771257 C77.3157747,16.7936955 78.4305549,17.6779161 79.7525934,17.7036701 C78.7187544,18.5241188 77.4163379,19.0134448 76.0010945,19.0134448 C75.7570447,19.0134448 75.5166741,18.9987282 75.2799826,18.9705214 C76.617964,19.8387991 78.2049008,20.3465207 79.9107965,20.3465207 C85.4687544,20.3465207 88.5064996,15.6813681 88.5064996,11.6355378 C88.5064996,11.5030887 88.5040469,11.3718659 88.497915,11.2394168 C89.0890305,10.8089571 89.6004313,10.2693496 90.0063634,9.65493278 Z" id="twitter" fill="#6A7582" sketch:type="MSShapeGroup"></path>
        <path d="M13.4974153,27.5 C6.04592551,27.5 0.006,21.4600745 0.006,14.0085847 C0.006,6.55832122 6.04592551,0.518395712 13.4974153,0.518395712 C20.9476788,0.518395712 26.9876043,6.55832122 26.9876043,14.0085847 C26.9876043,21.4600745 20.9476788,27.5 13.4974153,27.5 L13.4974153,27.5 L13.4974153,27.5 Z M19.6109237,13.9215116 L19.6109237,11.4442224 L17.2611781,11.4442224 L17.2611781,10.0571857 C17.2611781,9.40597747 17.7578623,8.87863372 18.3698263,8.87863372 L19.6109237,8.87863372 L19.6109237,6.64048874 L16.9190178,6.64048874 C15.2830258,6.64048874 14.2479604,7.89752907 14.2479604,9.63776344 L14.2479604,11.4442224 L12.2538652,11.4442224 L12.2538652,13.9215116 L14.2479604,13.9215116 L14.2479604,21.3349836 L17.2611781,21.3349836 L17.2611781,13.9215116 L19.6109237,13.9215116 L19.6109237,13.9215116 Z" id="fb" fill="#6A7582" sketch:type="MSShapeGroup"></path>
        <path d="M103.117961,14.009811 C103.117961,6.5595476 109.07078,0.519622093 116.412107,0.519622093 C123.754643,0.519622093 129.706253,6.5595476 129.706253,14.009811 C129.706253,21.4600745 123.754643,27.5 116.412107,27.5 C109.07078,27.5 103.117961,21.4600745 103.117961,14.009811 Z M120.152273,11.1420459 C120.167746,11.014352 120.175692,10.884587 120.175692,10.7531387 C120.175692,8.83662666 118.488116,7.27786489 116.412157,7.27786489 C114.336673,7.27786489 112.648646,8.83662666 112.648646,10.7531387 C112.648646,12.668736 114.336673,14.2268532 116.412157,14.2268532 C118.345663,14.2268532 119.94226,12.8752353 120.152273,11.1420459 Z M116.412157,9.3143201 C117.271585,9.3143201 117.970454,9.95967196 117.970454,10.7531387 C117.970454,11.5457946 117.271585,12.1912089 116.412157,12.1912089 C115.55363,12.1912089 114.853883,11.5457946 114.853883,10.7531387 C114.853883,9.95967196 115.55363,9.3143201 116.412157,9.3143201 Z M117.93483,17.0614948 C118.700985,16.9002815 119.439893,16.6204974 120.120273,16.2256976 C120.635322,15.9260165 120.790566,15.2975053 120.465981,14.8219949 C120.141824,14.3454241 119.461443,14.2020704 118.945515,14.5017515 C117.403951,15.396907 115.419058,15.3965118 113.878372,14.5017515 C113.362468,14.2020704 112.682063,14.3454241 112.358357,14.8219949 C112.033772,15.2978171 112.188589,15.9260165 112.703615,16.2256976 C113.384018,16.6199984 114.122903,16.9002815 114.88908,17.0614948 L112.784974,19.0040579 C112.354844,19.4016021 112.354844,20.0460391 112.785425,20.4435834 C113.000929,20.642158 113.282864,20.7416428 113.564776,20.7416428 C113.847139,20.7416428 114.129501,20.642158 114.345027,20.4435834 L116.41173,18.5346392 L118.480188,20.4435834 C118.910341,20.8411484 119.608332,20.8411484 120.038913,20.4435834 C120.469945,20.0460391 120.469945,19.4012903 120.038913,19.0040579 L117.93483,17.0614948 Z" id="ok" fill="#6A7582" sketch:type="MSShapeGroup"></path>
        <path d="M150.176317,27.5 C157.579113,27.5 163.580264,21.4988486 163.580264,14.0960531 C163.580264,6.69325764 157.579113,0.692106195 150.176317,0.692106195 C142.773522,0.692106195 136.77237,6.69325764 136.77237,14.0960531 C136.77237,21.4988486 142.773522,27.5 150.176317,27.5 Z M149.670008,19.974885 L150.722052,19.974885 C150.722052,19.974885 151.039839,19.94 151.202078,19.7650973 C151.351415,19.604531 151.346636,19.3029912 151.346636,19.3029912 C151.346636,19.3029912 151.326087,17.8913451 151.981255,17.683469 C152.627105,17.4786991 153.456459,19.0478053 154.335512,19.6511239 C155.000238,20.1077345 155.505353,20.0076195 155.505353,20.0076195 L157.855786,19.974885 C157.855786,19.974885 159.085362,19.8991416 158.502353,18.9323982 C158.454565,18.8533097 158.162822,18.2172566 156.75476,16.9102655 C155.28099,15.5423451 155.478353,15.7636018 157.253662,13.3973982 C158.334857,11.9563628 158.767096,11.0765929 158.632096,10.6997876 C158.503308,10.3409027 157.708123,10.4357611 157.708123,10.4357611 L155.061645,10.4522478 C155.061645,10.4522478 154.865477,10.4254867 154.719963,10.5124602 C154.577795,10.5977611 154.486282,10.7965575 154.486282,10.7965575 C154.486282,10.7965575 154.067423,11.9116814 153.508786,12.8600265 C152.330344,14.8611327 151.859158,14.9667434 151.666574,14.8424956 C151.218565,14.5529027 151.330388,13.6791062 151.330388,13.0583451 C151.330388,11.1191239 151.624521,10.3105575 150.757654,10.1012478 C150.469972,10.0317168 150.258273,9.98584071 149.522583,9.97843363 C148.5783,9.96863717 147.779052,9.98130088 147.326503,10.2030354 C147.025441,10.3504602 146.793193,10.679 146.934645,10.6978761 C147.109547,10.721292 147.505707,10.8046814 147.715733,11.0906903 C147.986928,11.4596106 147.97737,12.2882478 147.97737,12.2882478 C147.97737,12.2882478 148.133158,14.5710619 147.613468,14.8546814 C147.256733,15.049177 146.767388,14.6520619 145.716777,12.8366106 C145.17845,11.9066637 144.772016,10.8787522 144.772016,10.8787522 C144.772016,10.8787522 144.693645,10.686646 144.553866,10.5839027 C144.38422,10.4594159 144.147193,10.4197522 144.147193,10.4197522 L141.63237,10.4362389 C141.63237,10.4362389 141.254848,10.4467522 141.116264,10.6109027 C140.992972,10.7568938 141.106468,11.0589115 141.106468,11.0589115 C141.106468,11.0589115 143.075317,15.6651593 145.304609,17.9864425 C147.348724,20.1146637 149.670008,19.974885 149.670008,19.974885 Z" id="vk" fill="#6A7582" sketch:type="MSShapeGroup"></path>
    </g>
</svg>

<svg width="164" height="28" viewBox="0 0 164 28" xmlns="http://www.w3.org/2000/svg"><title>Untitled 4</title><path d="M34.372 14.009c0-7.45 6.04-13.49 13.491-13.49 7.452 0 13.492 6.04 13.492 13.49s-6.04 13.49-13.492 13.49c-7.45 0-13.491-6.04-13.491-13.49zm18.96-7.359H42.393c-1.038 0-1.89.85-1.89 1.889v10.938c0 1.039.852 1.889 1.89 1.889h10.939c1.038 0 1.888-.85 1.888-1.889V8.539c0-1.039-.85-1.889-1.888-1.889zm-.36 13.024H42.725a.586.586 0 0 1-.585-.585v-6.216h1.351a4.308 4.308 0 0 0-.189 1.263c0 2.448 2.048 4.432 4.575 4.432 2.525 0 4.573-1.984 4.573-4.432 0-.439-.066-.862-.188-1.263h1.295v6.216a.587.587 0 0 1-.585.585zm-.084-8.479h-1.663a.664.664 0 0 1-.664-.662V8.947c0-.364.298-.662.664-.662h1.663c.364 0 .662.298.662.662v1.586a.664.664 0 0 1-.662.662zm-5.011 5.645c-1.633 0-2.956-1.282-2.956-2.865 0-1.58 1.323-2.863 2.956-2.863 1.632 0 2.955 1.283 2.955 2.863 0 1.583-1.323 2.865-2.955 2.865zM82.072 27.5c-7.45 0-13.492-6.04-13.492-13.49S74.621.52 82.072.52c7.451 0 13.491 6.04 13.491 13.49S89.523 27.5 82.072 27.5zm7.934-17.845a5.954 5.954 0 0 1-1.735.482 3.067 3.067 0 0 0 1.328-1.694 6 6 0 0 1-1.92.743 2.997 2.997 0 0 0-2.204-.966c-1.668 0-3.02 1.37-3.02 3.061 0 .24.026.473.078.698a8.54 8.54 0 0 1-6.228-3.198c-.26.452-.408.977-.408 1.539 0 1.062.533 1.999 1.344 2.547a2.978 2.978 0 0 1-1.369-.383v.04a3.052 3.052 0 0 0 2.424 3 2.997 2.997 0 0 1-1.365.053 3.031 3.031 0 0 0 2.822 2.127 6.013 6.013 0 0 1-4.473 1.267 8.475 8.475 0 0 0 4.63 1.376c5.559 0 8.596-4.666 8.596-8.711 0-.133-.002-.264-.008-.397a6.162 6.162 0 0 0 1.508-1.584zM13.497 27.5C6.046 27.5.006 21.46.006 14.009c0-7.45 6.04-13.49 13.491-13.49 7.45 0 13.49 6.04 13.49 13.49 0 7.451-6.04 13.491-13.49 13.491zm6.114-13.578v-2.478h-2.35v-1.387c0-.651.497-1.178 1.109-1.178h1.24V6.64h-2.69c-1.636 0-2.671 1.258-2.671 2.998v1.806h-1.994v2.478h1.994v7.413h3.013v-7.413h2.35zm83.507.088c0-7.45 5.953-13.49 13.294-13.49 7.343 0 13.294 6.04 13.294 13.49s-5.951 13.49-13.294 13.49c-7.341 0-13.294-6.04-13.294-13.49zm17.034-2.868c.016-.128.024-.257.024-.389 0-1.916-1.688-3.475-3.764-3.475-2.075 0-3.763 1.559-3.763 3.475 0 1.916 1.688 3.474 3.763 3.474 1.934 0 3.53-1.352 3.74-3.085zm-3.74-1.828c.86 0 1.558.646 1.558 1.44 0 .792-.698 1.437-1.558 1.437-.858 0-1.558-.645-1.558-1.438 0-.793.7-1.439 1.558-1.439zm1.523 7.747a7.381 7.381 0 0 0 2.185-.835c.515-.3.67-.928.346-1.404-.324-.477-1.005-.62-1.52-.32a5.117 5.117 0 0 1-5.068 0c-.516-.3-1.196-.157-1.52.32-.324.476-.17 1.104.346 1.404a7.39 7.39 0 0 0 2.185.835l-2.104 1.943a.964.964 0 0 0 0 1.44c.216.198.498.298.78.298.282 0 .565-.1.78-.298l2.067-1.91 2.068 1.91a1.17 1.17 0 0 0 1.559 0 .963.963 0 0 0 0-1.44l-2.104-1.943zM150.176 27.5c7.403 0 13.404-6.001 13.404-13.404S157.58.692 150.176.692c-7.402 0-13.404 6.001-13.404 13.404S142.774 27.5 150.176 27.5zm-.506-7.525h1.052s.318-.035.48-.21c.15-.16.145-.462.145-.462s-.02-1.412.634-1.62c.646-.204 1.475 1.365 2.355 1.968.664.457 1.17.357 1.17.357l2.35-.033s1.23-.076.646-1.043c-.047-.079-.34-.715-1.747-2.022-1.474-1.368-1.277-1.146.499-3.513 1.08-1.44 1.513-2.32 1.378-2.697-.129-.36-.924-.264-.924-.264l-2.646.016s-.197-.027-.342.06c-.142.086-.234.285-.234.285s-.419 1.115-.977 2.063c-1.179 2.001-1.65 2.107-1.842 1.982-.448-.29-.337-1.163-.337-1.784 0-1.939.295-2.747-.572-2.957-.288-.07-.5-.115-1.235-.123-.945-.01-1.744.003-2.196.225-.302.147-.534.476-.392.495.175.023.57.107.78.393.272.369.262 1.197.262 1.197s.156 2.283-.364 2.567c-.356.194-.846-.203-1.896-2.018-.539-.93-.945-1.958-.945-1.958s-.078-.192-.218-.295c-.17-.125-.407-.164-.407-.164l-2.515.016s-.377.01-.516.175c-.123.146-.01.448-.01.448s1.97 4.606 4.199 6.927c2.044 2.129 4.365 1.989 4.365 1.989z" fill="#6A7582" fill-rule="evenodd"/></svg>
